symbols/web/history_toggle_off/materialsymbolsrounded/history_toggle_off_wght300_24px.svg

<svg xmlns="http://www.w3.org/2000/svg" height="24" width="24"><path d="m12.75 11.7 3.075 3.075q.2.2.2.525t-.2.525q-.2.2-.525.2t-.525-.2l-3.25-3.25q-.15-.15-.213-.313-.062-.162-.062-.337V8q0-.325.213-.537.212-.213.537-.213.325 0 .538.213.212.212.212.537ZM3.4 16.05q-.375-.775-.588-1.588-.212-.812-.287-1.712H4.05q.05.675.225 1.312.175.638.45 1.238Zm-.875-4.8q.075-.9.3-1.725.225-.825.6-1.6l1.3.75q-.275.6-.45 1.25T4.05 11.25Zm4.1 8.6q-.725-.525-1.35-1.15-.625-.625-1.125-1.35l1.3-.75q.4.55.888 1.037.487.488 1.037.888ZM5.475 7.375l-1.325-.75q.5-.725 1.125-1.338.625-.612 1.35-1.137l.75 1.325q-.55.4-1.025.875-.475.475-.875 1.025Zm5.775 14.1q-.9-.075-1.725-.3-.825-.225-1.6-.6l.75-1.3q.6.275 1.25.45t1.325.225ZM8.675 4.725l-.75-1.3q.775-.375 1.6-.6.825-.225 1.725-.3V4.05q-.675.05-1.325.225-.65.175-1.25.45Zm4.075 16.75V19.95q.675-.05 1.325-.225.65-.175 1.25-.45l.75 1.3q-.775.375-1.6.6-.825.225-1.725.3Zm2.575-16.75q-.6-.275-1.25-.45T12.75 4.05V2.525q.9.075 1.725.3.825.225 1.6.6Zm2.05 15.125-.75-1.325q.55-.4 1.025-.875.475-.475.875-1.025l1.325.75q-.525.725-1.137 1.35-.613.625-1.338 1.125Zm1.15-12.475q-.4-.55-.887-1.025-.488-.475-1.013-.875l.75-1.325q.7.5 1.325 1.125T19.825 6.6Zm1.425 3.875q-.05-.7-.237-1.338-.188-.637-.463-1.237l1.325-.775q.375.775.6 1.612.225.838.3 1.738Zm.625 4.825-1.3-.75q.275-.6.45-1.25t.225-1.325h1.525q-.075.9-.3 1.725-.225.825-.6 1.6Z"/></svg>

<svg xmlns="http://www.w3.org/2000/svg" height="24" width="24"><path d="M12.75 11.7 15.825 14.775Q16.025 14.975 16.025 15.3Q16.025 15.625 15.825 15.825Q15.625 16.025 15.3 16.025Q14.975 16.025 14.775 15.825L11.525 12.575Q11.375 12.425 11.312 12.262Q11.25 12.1 11.25 11.925V8Q11.25 7.675 11.463 7.463Q11.675 7.25 12 7.25Q12.325 7.25 12.538 7.463Q12.75 7.675 12.75 8ZM3.4 16.05Q3.025 15.275 2.812 14.462Q2.6 13.65 2.525 12.75H4.05Q4.1 13.425 4.275 14.062Q4.45 14.7 4.725 15.3ZM2.525 11.25Q2.6 10.35 2.825 9.525Q3.05 8.7 3.425 7.925L4.725 8.675Q4.45 9.275 4.275 9.925Q4.1 10.575 4.05 11.25ZM6.625 19.85Q5.9 19.325 5.275 18.7Q4.65 18.075 4.15 17.35L5.45 16.6Q5.85 17.15 6.338 17.637Q6.825 18.125 7.375 18.525ZM5.475 7.375 4.15 6.625Q4.65 5.9 5.275 5.287Q5.9 4.675 6.625 4.15L7.375 5.475Q6.825 5.875 6.35 6.35Q5.875 6.825 5.475 7.375ZM11.25 21.475Q10.35 21.4 9.525 21.175Q8.7 20.95 7.925 20.575L8.675 19.275Q9.275 19.55 9.925 19.725Q10.575 19.9 11.25 19.95ZM8.675 4.725 7.925 3.425Q8.7 3.05 9.525 2.825Q10.35 2.6 11.25 2.525V4.05Q10.575 4.1 9.925 4.275Q9.275 4.45 8.675 4.725ZM12.75 21.475V19.95Q13.425 19.9 14.075 19.725Q14.725 19.55 15.325 19.275L16.075 20.575Q15.3 20.95 14.475 21.175Q13.65 21.4 12.75 21.475ZM15.325 4.725Q14.725 4.45 14.075 4.275Q13.425 4.1 12.75 4.05V2.525Q13.65 2.6 14.475 2.825Q15.3 3.05 16.075 3.425ZM17.375 19.85 16.625 18.525Q17.175 18.125 17.65 17.65Q18.125 17.175 18.525 16.625L19.85 17.375Q19.325 18.1 18.713 18.725Q18.1 19.35 17.375 19.85ZM18.525 7.375Q18.125 6.825 17.638 6.35Q17.15 5.875 16.625 5.475L17.375 4.15Q18.075 4.65 18.7 5.275Q19.325 5.9 19.825 6.6ZM19.95 11.25Q19.9 10.55 19.713 9.912Q19.525 9.275 19.25 8.675L20.575 7.9Q20.95 8.675 21.175 9.512Q21.4 10.35 21.475 11.25ZM20.575 16.075 19.275 15.325Q19.55 14.725 19.725 14.075Q19.9 13.425 19.95 12.75H21.475Q21.4 13.65 21.175 14.475Q20.95 15.3 20.575 16.075Z"/></svg>
